!!!COM: Music21
!!!OTL: Polca da Ponte de Outeiro
!!!OMV: pezas_polca_polca-da-ponte-de-outeiro_polca-da-ponte-de-outeiro-partitura.musicxml
**kern
*I"Bagpipes
*I'Bag
*clefG^2
*k[]
*M2/4
=1
!LO:TX:a:t=Andante
*MM96
!LO:TX:a:t=[quarter]=96
4r
16ccLL
16dd
16ee
16ffJJ
=||
16ggLL
16ee
16cc
16eeJJ
16eeLL
16dd
16ee
16ffJJ
=
8ggL
8eeJ
16ccLL
16dd
16ee
16ffJJ
=
16ggLL
16ee
16cc
16eeJJ
16eeLL
16dd
16b
16ddJJ
=
4cc
16ccLL
16dd
16ee
16ffJJ
=||
16ggLL
16ee
16cc
16eeJJ
16eeLL
16dd
16ee
16ffJJ
=
8ggL
8eeJ
16ccLL
16dd
16ee
16ffJJ
!!linebreak:original
=
16ggLL
16ee
16cc
16eeJJ
16eeLL
16dd
16b
16ddJJ
=||
4cc
8ffL
16ffL
16ddJJ
!!linebreak:original
=||
8eeL
16eeL
16ccJJ
8ddL
16ddL
16bJJ
=
8eeL
8ccJ
8ffL
16ffL
16ddJJ
=
8eeL
16eeL
16ccJJ
8ddL
16ddL
16bJJ
=
4cc
8ffL
16ffL
16ddJJ
!!linebreak:original
=||
8eeL
16eeL
16ccJJ
8ddL
16ddL
16bJJ
=
8eeL
8ccJ
8ffL
16ffL
16ddJJ
=
8eeL
16eeL
16ccJJ
8ddL
16ddL
16bJJ
=
4cc
8cccL
16bbL
16aaJJ
=||
8ggL
16eeL
16ffJJ
8ggL
8ggJ
=
8cccL
16bbL
16aaJJ
8ggL
16eeL
16ffJJ
=
4gg
8cccL
16bbL
16aaJJ
=||
8ggL
16eeL
16ffJJ
8ggL
8ggJ
!!linebreak:original
=
8cccL
16bbL
16aaJJ
8ggL
16eeL
16ffJJ
!!linebreak:original
=
4gg
16ccLL
16dd
16ee
16ffJJ
=||
8cc
4.r
==
*-
